X: 1680
T: Hugh McArdle's Fancy
R: hornpipe
%S: s:2 b:12(6+6)
B: O'Neill's 1850 #1680
O: J.O'Neill
M: 4/4
L: 1/8
K: G
B>c | d>ed>B g>fg>d | b2b>a g>fg>e |\
[1,3 d>^cd>g B>GB>d | A>^GA>B A2 :|\
[2,4 d>gf>e d>cB>A | G2G2 HG2 :|
|: A>B | c>Bc>A F>AD>F | G>AB>c d>fd>B |\
[1,3 c>Bc>A B>AB>G | (3ABG (3FGE D2 :|\
[2,4 c>de>f a>ge>c | d2d2 "_D.C."d2 :|
